X:4107
T:Devil Among The Taylors,The. JC.199
M:C
L:1/8
Q:160
S:John Clare,Poet,Helpstone (1793-1864)
R:Reel
O:England
A:Northamptonshire
N:
Z:P Headford
K:Bb
f2|{a}b2fa {a}b2fa|{a}b2fb gfed|egcg egcg|egcb abc'a|!
{a}b2fa {a}b2fa|{a}b2fb gfed|gedc fdcB|F2[E2A2][D2B2]:|!
|:f2|dfBf dfBf|dfBb gfed|egcg egcg|egcb abc'a|!
dfBf dfBf|dfBb gfed|gedc fdcB|F2[E2A2][D2B2]:|]
